X: 26285
T: Melting Moments
R: waltz
M: 3/4
K: Gminor
F2 F2 B2|G2 BG F2|E2 EF ED|G4 G2:|
dc BA GG|g2 G4|g2 gf g2|e3 f g2|e2 e2 B2|
d3 e d2|Bc Bc c2|A2 G2 HG2|E2 D2 G2|B3 A HG2:|

